images/23663959.svg

<?xml version="1.0" encoding="UTF-8"?>
<svg xmlns="http://www.w3.org/2000/svg" xmlns:xlink="http://www.w3.org/1999/xlink" width="300pt" height="300pt" viewBox="0 0 300 300" version="1.1">
<defs>
<g>
<symbol overflow="visible" id="glyph0-0">
<path style="stroke:none;" d="M 0.796875 2.828125 L 0.796875 -11.28125 L 8.796875 -11.28125 L 8.796875 2.828125 Z M 1.703125 1.9375 L 7.90625 1.9375 L 7.90625 -10.390625 L 1.703125 -10.390625 Z M 1.703125 1.9375 "/>
</symbol>
<symbol overflow="visible" id="glyph0-1">
<path style="stroke:none;" d="M 10.3125 -10.765625 L 10.3125 -9.109375 C 9.78125 -9.597656 9.210938 -9.960938 8.609375 -10.203125 C 8.003906 -10.453125 7.363281 -10.578125 6.6875 -10.578125 C 5.351562 -10.578125 4.332031 -10.171875 3.625 -9.359375 C 2.914062 -8.546875 2.5625 -7.367188 2.5625 -5.828125 C 2.5625 -4.285156 2.914062 -3.109375 3.625 -2.296875 C 4.332031 -1.484375 5.351562 -1.078125 6.6875 -1.078125 C 7.363281 -1.078125 8.003906 -1.195312 8.609375 -1.4375 C 9.210938 -1.6875 9.78125 -2.054688 10.3125 -2.546875 L 10.3125 -0.90625 C 9.757812 -0.53125 9.171875 -0.242188 8.546875 -0.046875 C 7.929688 0.140625 7.28125 0.234375 6.59375 0.234375 C 4.832031 0.234375 3.441406 -0.304688 2.421875 -1.390625 C 1.410156 -2.472656 0.90625 -3.953125 0.90625 -5.828125 C 0.90625 -7.703125 1.410156 -9.175781 2.421875 -10.25 C 3.441406 -11.332031 4.832031 -11.875 6.59375 -11.875 C 7.289062 -11.875 7.945312 -11.78125 8.5625 -11.59375 C 9.1875 -11.414062 9.769531 -11.140625 10.3125 -10.765625 Z M 10.3125 -10.765625 "/>
</symbol>
<symbol overflow="visible" id="glyph0-2">
<path style="stroke:none;" d="M 1.515625 -12.15625 L 2.953125 -12.15625 L 2.953125 0 L 1.515625 0 Z M 1.515625 -12.15625 "/>
</symbol>
<symbol overflow="visible" id="glyph0-3">
<path style="stroke:none;" d="M 1.578125 -11.671875 L 3.703125 -11.671875 L 8.875 -1.90625 L 8.875 -11.671875 L 10.40625 -11.671875 L 10.40625 0 L 8.28125 0 L 3.109375 -9.765625 L 3.109375 0 L 1.578125 0 Z M 1.578125 -11.671875 "/>
</symbol>
<symbol overflow="visible" id="glyph0-4">
<path style="stroke:none;" d="M 1.578125 -11.671875 L 3.15625 -11.671875 L 3.15625 -6.890625 L 8.890625 -6.890625 L 8.890625 -11.671875 L 10.46875 -11.671875 L 10.46875 0 L 8.890625 0 L 8.890625 -5.5625 L 3.15625 -5.5625 L 3.15625 0 L 1.578125 0 Z M 1.578125 -11.671875 "/>
</symbol>
<symbol overflow="visible" id="glyph0-5">
<path style="stroke:none;" d="M 6.3125 -10.59375 C 5.164062 -10.59375 4.253906 -10.164062 3.578125 -9.3125 C 2.898438 -8.457031 2.5625 -7.296875 2.5625 -5.828125 C 2.5625 -4.359375 2.898438 -3.195312 3.578125 -2.34375 C 4.253906 -1.488281 5.164062 -1.0625 6.3125 -1.0625 C 7.457031 -1.0625 8.363281 -1.488281 9.03125 -2.34375 C 9.695312 -3.195312 10.03125 -4.359375 10.03125 -5.828125 C 10.03125 -7.296875 9.695312 -8.457031 9.03125 -9.3125 C 8.363281 -10.164062 7.457031 -10.59375 6.3125 -10.59375 Z M 6.3125 -11.875 C 7.945312 -11.875 9.253906 -11.328125 10.234375 -10.234375 C 11.210938 -9.140625 11.703125 -7.671875 11.703125 -5.828125 C 11.703125 -3.984375 11.210938 -2.507812 10.234375 -1.40625 C 9.253906 -0.3125 7.945312 0.234375 6.3125 0.234375 C 4.664062 0.234375 3.351562 -0.3125 2.375 -1.40625 C 1.394531 -2.507812 0.90625 -3.984375 0.90625 -5.828125 C 0.90625 -7.671875 1.394531 -9.140625 2.375 -10.234375 C 3.351562 -11.328125 4.664062 -11.875 6.3125 -11.875 Z M 6.3125 -11.875 "/>
</symbol>
<symbol overflow="visible" id="glyph0-6">
<path style="stroke:none;" d="M 5.484375 -4.40625 C 4.328125 -4.40625 3.523438 -4.269531 3.078125 -4 C 2.628906 -3.738281 2.40625 -3.285156 2.40625 -2.640625 C 2.40625 -2.128906 2.570312 -1.722656 2.90625 -1.421875 C 3.238281 -1.128906 3.695312 -0.984375 4.28125 -0.984375 C 5.070312 -0.984375 5.707031 -1.265625 6.1875 -1.828125 C 6.675781 -2.390625 6.921875 -3.140625 6.921875 -4.078125 L 6.921875 -4.40625 Z M 8.359375 -5 L 8.359375 0 L 6.921875 0 L 6.921875 -1.328125 C 6.585938 -0.796875 6.175781 -0.398438 5.6875 -0.140625 C 5.195312 0.109375 4.597656 0.234375 3.890625 0.234375 C 2.992188 0.234375 2.28125 -0.015625 1.75 -0.515625 C 1.226562 -1.023438 0.96875 -1.703125 0.96875 -2.546875 C 0.96875 -3.535156 1.296875 -4.28125 1.953125 -4.78125 C 2.609375 -5.28125 3.59375 -5.53125 4.90625 -5.53125 L 6.921875 -5.53125 L 6.921875 -5.671875 C 6.921875 -6.328125 6.703125 -6.835938 6.265625 -7.203125 C 5.828125 -7.566406 5.21875 -7.75 4.4375 -7.75 C 3.9375 -7.75 3.445312 -7.6875 2.96875 -7.5625 C 2.5 -7.445312 2.046875 -7.269531 1.609375 -7.03125 L 1.609375 -8.359375 C 2.128906 -8.554688 2.632812 -8.707031 3.125 -8.8125 C 3.625 -8.914062 4.109375 -8.96875 4.578125 -8.96875 C 5.847656 -8.96875 6.796875 -8.640625 7.421875 -7.984375 C 8.046875 -7.328125 8.359375 -6.332031 8.359375 -5 Z M 8.359375 -5 "/>
</symbol>
<symbol overflow="visible" id="glyph1-0">
<path style="stroke:none;" d="M 0.640625 2.296875 L 0.640625 -9.171875 L 7.140625 -9.171875 L 7.140625 2.296875 Z M 1.375 1.578125 L 6.421875 1.578125 L 6.421875 -8.4375 L 1.375 -8.4375 Z M 1.375 1.578125 "/>
</symbol>
<symbol overflow="visible" id="glyph1-1">
<path style="stroke:none;" d="M 0.640625 -4.078125 L 4.0625 -4.078125 L 4.0625 -3.046875 L 0.640625 -3.046875 Z M 0.640625 -4.078125 "/>
</symbol>
<symbol overflow="visible" id="glyph1-2">
<path style="stroke:none;" d="M 2.5 -1.078125 L 6.96875 -1.078125 L 6.96875 0 L 0.953125 0 L 0.953125 -1.078125 C 1.441406 -1.578125 2.101562 -2.25 2.9375 -3.09375 C 3.78125 -3.945312 4.3125 -4.5 4.53125 -4.75 C 4.9375 -5.207031 5.21875 -5.597656 5.375 -5.921875 C 5.539062 -6.242188 5.625 -6.554688 5.625 -6.859375 C 5.625 -7.367188 5.445312 -7.78125 5.09375 -8.09375 C 4.75 -8.40625 4.289062 -8.5625 3.71875 -8.5625 C 3.3125 -8.5625 2.882812 -8.492188 2.4375 -8.359375 C 2 -8.222656 1.523438 -8.007812 1.015625 -7.71875 L 1.015625 -9.015625 C 1.535156 -9.222656 2.019531 -9.378906 2.46875 -9.484375 C 2.914062 -9.597656 3.320312 -9.65625 3.6875 -9.65625 C 4.675781 -9.65625 5.460938 -9.40625 6.046875 -8.90625 C 6.628906 -8.414062 6.921875 -7.757812 6.921875 -6.9375 C 6.921875 -6.550781 6.847656 -6.179688 6.703125 -5.828125 C 6.554688 -5.484375 6.289062 -5.078125 5.90625 -4.609375 C 5.800781 -4.484375 5.460938 -4.125 4.890625 -3.53125 C 4.328125 -2.945312 3.53125 -2.128906 2.5 -1.078125 Z M 2.5 -1.078125 "/>
</symbol>
<symbol overflow="visible" id="glyph1-3">
<path style="stroke:none;" d="M 5.984375 -8.15625 L 5.984375 -4.609375 L 9.515625 -4.609375 L 9.515625 -3.53125 L 5.984375 -3.53125 L 5.984375 0 L 4.90625 0 L 4.90625 -3.53125 L 1.375 -3.53125 L 1.375 -4.609375 L 4.90625 -4.609375 L 4.90625 -8.15625 Z M 5.984375 -8.15625 "/>
</symbol>
</g>
</defs>
<g id="surface54885">
<rect x="0" y="0" width="300" height="300" style="fill:rgb(100%,100%,100%);fill-opacity:1;stroke:none;"/>
<path style="fill:none;stroke-width:1.2;stroke-linecap:butt;stroke-linejoin:miter;stroke:rgb(0%,0%,0%);stroke-opacity:1;stroke-miterlimit:10;" d="M 268.507812 206.421875 L 237.863281 183.535156 "/>
<path style="fill:none;stroke-width:1.2;stroke-linecap:butt;stroke-linejoin:miter;stroke:rgb(0%,0%,0%);stroke-opacity:1;stroke-miterlimit:10;" d="M 237.863281 183.535156 L 202.71875 198.628906 "/>
<path style="fill:none;stroke-width:1.2;stroke-linecap:butt;stroke-linejoin:miter;stroke:rgb(0%,0%,0%);stroke-opacity:1;stroke-miterlimit:10;" d="M 230.796875 176.773438 L 202.679688 188.851562 "/>
<path style="fill:none;stroke-width:1.2;stroke-linecap:butt;stroke-linejoin:miter;stroke:rgb(0%,0%,0%);stroke-opacity:1;stroke-miterlimit:10;" d="M 242.359375 145.550781 L 237.863281 183.535156 "/>
<path style="fill:none;stroke-width:1.2;stroke-linecap:butt;stroke-linejoin:miter;stroke:rgb(0%,0%,0%);stroke-opacity:1;stroke-miterlimit:10;" d="M 202.71875 198.628906 L 172.070312 175.742188 "/>
<path style="fill:none;stroke-width:1.2;stroke-linecap:butt;stroke-linejoin:miter;stroke:rgb(0%,0%,0%);stroke-opacity:1;stroke-miterlimit:10;" d="M 202.71875 198.628906 L 200.46875 217.621094 "/>
<path style="fill:none;stroke-width:1.2;stroke-linecap:butt;stroke-linejoin:miter;stroke:rgb(0%,80%,0%);stroke-opacity:1;stroke-miterlimit:10;" d="M 200.46875 217.621094 L 198.21875 236.613281 "/>
<path style="fill:none;stroke-width:1.2;stroke-linecap:butt;stroke-linejoin:miter;stroke:rgb(0%,0%,0%);stroke-opacity:1;stroke-miterlimit:10;" d="M 172.070312 175.742188 L 176.570312 137.757812 "/>
<path style="fill:none;stroke-width:1.2;stroke-linecap:butt;stroke-linejoin:miter;stroke:rgb(0%,0%,0%);stroke-opacity:1;stroke-miterlimit:10;" d="M 181.457031 173.003906 L 185.054688 142.613281 "/>
<path style="fill:none;stroke-width:1.2;stroke-linecap:butt;stroke-linejoin:miter;stroke:rgb(0%,0%,0%);stroke-opacity:1;stroke-miterlimit:10;" d="M 172.070312 175.742188 L 154.5 183.292969 "/>
<path style="fill:none;stroke-width:1.2;stroke-linecap:butt;stroke-linejoin:miter;stroke:rgb(0%,0%,100%);stroke-opacity:1;stroke-miterlimit:10;" d="M 154.5 183.292969 L 136.925781 190.839844 "/>
<path style="fill:none;stroke-width:1.2;stroke-linecap:butt;stroke-linejoin:miter;stroke:rgb(0%,0%,0%);stroke-opacity:1;stroke-miterlimit:10;" d="M 176.570312 137.757812 L 211.714844 122.660156 "/>
<path style="fill:none;stroke-width:1.2;stroke-linecap:butt;stroke-linejoin:miter;stroke:rgb(0%,0%,0%);stroke-opacity:1;stroke-miterlimit:10;" d="M 176.570312 137.757812 L 161.246094 126.3125 "/>
<path style="fill:none;stroke-width:1.2;stroke-linecap:butt;stroke-linejoin:miter;stroke:rgb(0%,80%,0%);stroke-opacity:1;stroke-miterlimit:10;" d="M 161.246094 126.3125 L 145.921875 114.871094 "/>
<path style="fill:none;stroke-width:1.2;stroke-linecap:butt;stroke-linejoin:miter;stroke:rgb(0%,0%,0%);stroke-opacity:1;stroke-miterlimit:10;" d="M 211.714844 122.660156 L 242.359375 145.550781 "/>
<path style="fill:none;stroke-width:1.2;stroke-linecap:butt;stroke-linejoin:miter;stroke:rgb(0%,0%,0%);stroke-opacity:1;stroke-miterlimit:10;" d="M 209.394531 132.160156 L 233.910156 150.472656 "/>
<path style=" stroke:none;fill-rule:nonzero;fill:rgb(100%,100%,100%);fill-opacity:1;" d="M 129.921875 105.371094 L 145.921875 105.371094 L 145.921875 124.371094 L 129.921875 124.371094 Z M 129.921875 105.371094 "/>
<g style="fill:rgb(0%,80%,0%);fill-opacity:1;">
  <use xlink:href="#glyph0-1" x="129.921875" y="120.222656"/>
  <use xlink:href="#glyph0-2" x="141.09375" y="120.222656"/>
</g>
<path style="fill:none;stroke-width:1.2;stroke-linecap:butt;stroke-linejoin:miter;stroke:rgb(0%,0%,100%);stroke-opacity:1;stroke-miterlimit:10;" d="M 136.925781 190.839844 L 121.601562 179.394531 "/>
<path style="fill:none;stroke-width:1.2;stroke-linecap:butt;stroke-linejoin:miter;stroke:rgb(0%,0%,0%);stroke-opacity:1;stroke-miterlimit:10;" d="M 121.601562 179.394531 L 106.28125 167.953125 "/>
<path style=" stroke:none;fill-rule:nonzero;fill:rgb(100%,100%,100%);fill-opacity:1;" d="M 124.925781 181.339844 L 148.925781 181.339844 L 148.925781 200.339844 L 124.925781 200.339844 Z M 124.925781 181.339844 "/>
<g style="fill:rgb(0%,0%,100%);fill-opacity:1;">
  <use xlink:href="#glyph0-3" x="124.925781" y="196.191406"/>
  <use xlink:href="#glyph0-4" x="136.894531" y="196.191406"/>
</g>
<path style="fill:none;stroke-width:1.2;stroke-linecap:butt;stroke-linejoin:miter;stroke:rgb(0%,0%,0%);stroke-opacity:1;stroke-miterlimit:10;" d="M 106.28125 167.953125 L 110.777344 129.96875 "/>
<path style="fill:none;stroke-width:1.2;stroke-linecap:butt;stroke-linejoin:miter;stroke:rgb(0%,0%,0%);stroke-opacity:1;stroke-miterlimit:10;" d="M 97.792969 163.09375 L 101.390625 132.707031 "/>
<path style="fill:none;stroke-width:1.2;stroke-linecap:butt;stroke-linejoin:miter;stroke:rgb(0%,0%,0%);stroke-opacity:1;stroke-miterlimit:10;" d="M 71.132812 183.046875 L 106.28125 167.953125 "/>
<path style="fill:none;stroke-width:1.2;stroke-linecap:butt;stroke-linejoin:miter;stroke:rgb(0%,0%,0%);stroke-opacity:1;stroke-miterlimit:10;" d="M 110.777344 129.96875 L 80.132812 107.078125 "/>
<path style="fill:none;stroke-width:1.2;stroke-linecap:butt;stroke-linejoin:miter;stroke:rgb(0%,0%,0%);stroke-opacity:1;stroke-miterlimit:10;" d="M 80.132812 107.078125 L 44.984375 122.175781 "/>
<path style="fill:none;stroke-width:1.2;stroke-linecap:butt;stroke-linejoin:miter;stroke:rgb(0%,0%,0%);stroke-opacity:1;stroke-miterlimit:10;" d="M 80.167969 116.859375 L 52.054688 128.9375 "/>
<path style="fill:none;stroke-width:1.2;stroke-linecap:butt;stroke-linejoin:miter;stroke:rgb(0%,0%,0%);stroke-opacity:1;stroke-miterlimit:10;" d="M 44.984375 122.175781 L 40.488281 160.160156 "/>
<path style="fill:none;stroke-width:1.2;stroke-linecap:butt;stroke-linejoin:miter;stroke:rgb(0%,0%,0%);stroke-opacity:1;stroke-miterlimit:10;" d="M 40.488281 160.160156 L 71.132812 183.046875 "/>
<path style="fill:none;stroke-width:1.2;stroke-linecap:butt;stroke-linejoin:miter;stroke:rgb(0%,0%,0%);stroke-opacity:1;stroke-miterlimit:10;" d="M 48.9375 155.238281 L 73.457031 173.546875 "/>
<path style="fill:none;stroke-width:1.2;stroke-linecap:butt;stroke-linejoin:miter;stroke:rgb(0%,0%,0%);stroke-opacity:1;stroke-miterlimit:10;" d="M 71.132812 183.046875 L 66.636719 221.03125 "/>
<path style="fill:none;stroke-width:1.2;stroke-linecap:butt;stroke-linejoin:miter;stroke:rgb(0%,0%,0%);stroke-opacity:1;stroke-miterlimit:10;" d="M 63.945312 224.636719 L 79.265625 236.082031 "/>
<path style="fill:none;stroke-width:1.2;stroke-linecap:butt;stroke-linejoin:miter;stroke:rgb(100%,0%,0%);stroke-opacity:1;stroke-miterlimit:10;" d="M 79.265625 236.082031 L 94.589844 247.527344 "/>
<path style="fill:none;stroke-width:1.2;stroke-linecap:butt;stroke-linejoin:miter;stroke:rgb(0%,0%,0%);stroke-opacity:1;stroke-miterlimit:10;" d="M 69.328125 217.425781 L 84.652344 228.871094 "/>
<path style="fill:none;stroke-width:1.2;stroke-linecap:butt;stroke-linejoin:miter;stroke:rgb(100%,0%,0%);stroke-opacity:1;stroke-miterlimit:10;" d="M 84.652344 228.871094 L 99.976562 240.316406 "/>
<path style="fill:none;stroke-width:1.2;stroke-linecap:butt;stroke-linejoin:miter;stroke:rgb(0%,0%,0%);stroke-opacity:1;stroke-miterlimit:10;" d="M 66.636719 221.03125 L 49.0625 228.582031 "/>
<path style="fill:none;stroke-width:1.2;stroke-linecap:butt;stroke-linejoin:miter;stroke:rgb(100%,0%,0%);stroke-opacity:1;stroke-miterlimit:10;" d="M 49.0625 228.582031 L 31.492188 236.128906 "/>
<path style=" stroke:none;fill-rule:nonzero;fill:rgb(100%,100%,100%);fill-opacity:1;" d="M 91.28125 234.421875 L 104.28125 234.421875 L 104.28125 253.421875 L 91.28125 253.421875 Z M 91.28125 234.421875 "/>
<g style="fill:rgb(100%,0%,0%);fill-opacity:1;">
  <use xlink:href="#glyph0-5" x="91.28125" y="249.273438"/>
</g>
<path style=" stroke:none;fill-rule:nonzero;fill:rgb(100%,100%,100%);fill-opacity:1;" d="M 13.492188 225.128906 L 31.492188 225.128906 L 31.492188 247.128906 L 13.492188 247.128906 Z M 13.492188 225.128906 "/>
<g style="fill:rgb(100%,0%,0%);fill-opacity:1;">
  <use xlink:href="#glyph1-1" x="13.492188" y="237.504883"/>
</g>
<g style="fill:rgb(100%,0%,0%);fill-opacity:1;">
  <use xlink:href="#glyph0-5" x="18.301758" y="242.387695"/>
</g>
<path style=" stroke:none;fill-rule:nonzero;fill:rgb(100%,100%,100%);fill-opacity:1;" d="M 190.21875 227.113281 L 206.21875 227.113281 L 206.21875 246.113281 L 190.21875 246.113281 Z M 190.21875 227.113281 "/>
<g style="fill:rgb(0%,80%,0%);fill-opacity:1;">
  <use xlink:href="#glyph0-1" x="190.21875" y="241.964844"/>
  <use xlink:href="#glyph0-2" x="201.390625" y="241.964844"/>
</g>
<path style=" stroke:none;fill-rule:nonzero;fill:rgb(100%,100%,100%);fill-opacity:1;" d="M 122.054688 70.078125 L 156.054688 70.078125 L 156.054688 93.078125 L 122.054688 93.078125 Z M 122.054688 70.078125 "/>
<g style="fill:rgb(100%,0%,0%);fill-opacity:1;">
  <use xlink:href="#glyph0-5" x="122.054688" y="84.929688"/>
  <use xlink:href="#glyph0-4" x="134.648438" y="84.929688"/>
</g>
<g style="fill:rgb(100%,0%,0%);fill-opacity:1;">
  <use xlink:href="#glyph1-2" x="146.679688" y="89.8125"/>
</g>
<path style=" stroke:none;fill-rule:nonzero;fill:rgb(100%,100%,100%);fill-opacity:1;" d="M 123.054688 45.078125 L 156.054688 45.078125 L 156.054688 67.078125 L 123.054688 67.078125 Z M 123.054688 45.078125 "/>
<g style="fill:rgb(0%,0%,0%);fill-opacity:1;">
  <use xlink:href="#glyph0-3" x="123.054688" y="62.336914"/>
  <use xlink:href="#glyph0-6" x="135.023438" y="62.336914"/>
</g>
<g style="fill:rgb(0%,0%,0%);fill-opacity:1;">
  <use xlink:href="#glyph1-3" x="144.828125" y="57.454102"/>
</g>
</g>
</svg>

<svg xmlns="http://www.w3.org/2000/svg" xmlns:xlink="http://www.w3.org/1999/xlink" width="300pt" height="300pt" viewBox="0 0 300 300"><defs><symbol overflow="visible"><path d="M.797 2.828v-14.11h8V2.83zm.906-.89h6.203v-12.33H1.703zm0 0"/></symbol><symbol overflow="visible" id="a"><path d="M10.313-10.766v1.657c-.532-.488-1.102-.85-1.704-1.093-.606-.25-1.247-.375-1.922-.375-1.336 0-2.356.406-3.063 1.22-.71.81-1.063 1.99-1.063 3.53 0 1.543.352 2.72 1.063 3.53.707.814 1.727 1.22 3.063 1.22.675 0 1.316-.117 1.92-.36.603-.25 1.173-.617 1.704-1.11v1.642c-.554.375-1.14.664-1.765.86-.617.187-1.266.28-1.953.28-1.762 0-3.153-.54-4.172-1.625C1.41-2.474.906-3.954.906-5.83c0-1.875.504-3.348 1.516-4.422 1.02-1.082 2.41-1.625 4.172-1.625.695 0 1.35.094 1.968.28.626.18 1.208.454 1.75.83zm0 0"/></symbol><symbol overflow="visible" id="b"><path d="M1.516-12.156h1.437V0H1.516zm0 0"/></symbol><symbol overflow="visible" id="c"><path d="M1.578-11.672h2.125l5.172 9.766v-9.766h1.53V0H8.282L3.11-9.766V0H1.577zm0 0"/></symbol><symbol overflow="visible" id="d"><path d="M1.578-11.672h1.578v4.78H8.89v-4.78h1.58V0H8.89v-5.563H3.157V0H1.578zm0 0"/></symbol><symbol overflow="visible" id="e"><path d="M6.313-10.594c-1.15 0-2.06.43-2.735 1.28-.68.857-1.015 2.017-1.015 3.486 0 1.47.335 2.633 1.015 3.484.676.856 1.586 1.28 2.735 1.28 1.144.002 2.05-.424 2.718-1.28.665-.85 1-2.015 1-3.484 0-1.47-.335-2.63-1-3.484-.667-.852-1.573-1.282-2.717-1.282zm0-1.28c1.632 0 2.94.546 3.92 1.64.978 1.093 1.47 2.562 1.47 4.406 0 1.844-.492 3.32-1.47 4.422-.98 1.093-2.288 1.64-3.92 1.64-1.65 0-2.96-.546-3.938-1.64-.98-1.102-1.47-2.578-1.47-4.422 0-1.844.49-3.313 1.47-4.406.977-1.094 2.29-1.64 3.938-1.64zm0 0"/></symbol><symbol overflow="visible" id="h"><path d="M5.484-4.406c-1.156 0-1.96.136-2.406.406-.45.262-.672.715-.672 1.36 0 .51.164.917.5 1.218.332.293.79.438 1.375.438.79 0 1.427-.282 1.907-.844.49-.563.735-1.313.735-2.25v-.328zM8.36-5v5H6.92v-1.328c-.336.53-.746.93-1.234 1.187-.493.25-1.09.374-1.797.374-.898 0-1.61-.25-2.14-.75-.523-.507-.78-1.187-.78-2.03 0-.99.327-1.735.983-2.235.656-.5 1.64-.75 2.953-.75h2.016v-.142c0-.656-.22-1.164-.656-1.53-.438-.364-1.047-.548-1.829-.548-.5 0-.992.063-1.468.188-.47.117-.923.292-1.36.53v-1.327c.52-.195 1.023-.347 1.515-.453.5-.1.984-.156 1.453-.156 1.27 0 2.22.33 2.844.986.625.656.937 1.652.937 2.984zm0 0"/></symbol><symbol overflow="visible"><path d="M.64 2.297v-11.47h6.5v11.47zm.735-.72h5.047V-8.436H1.375zm0 0"/></symbol><symbol overflow="visible" id="f"><path d="M.64-4.078h3.422v1.03H.643zm0 0"/></symbol><symbol overflow="visible" id="g"><path d="M2.5-1.078h4.47V0H.952v-1.078c.488-.5 1.15-1.172 1.985-2.016C3.78-3.944 4.312-4.5 4.53-4.75c.407-.457.69-.848.845-1.172.164-.32.25-.633.25-.937 0-.507-.18-.92-.53-1.234-.345-.312-.806-.47-1.376-.47-.408.002-.837.072-1.283.205-.437.137-.914.352-1.42.64v-1.296c.518-.207 1.003-.363 1.452-.468.444-.114.85-.172 1.217-.172.99 0 1.774.25 2.36.75.582.492.875 1.148.875 1.97 0 .385-.074.756-.22 1.108-.147.344-.413.75-.796 1.22-.105.124-.445.483-1.015 1.077-.562.585-1.36 1.4-2.39 2.452zm0 0"/></symbol><symbol overflow="visible" id="i"><path d="M5.984-8.156v3.547h3.532v1.08H5.984V0H4.906v-3.53h-3.53v-1.08h3.53v-3.546zm0 0"/></symbol></defs><g><path fill="#fff" d="M0 0h300v300H0z"/><path d="M268.508 206.422l-30.645-22.887M237.863 183.535L202.72 198.63M230.797 176.773l-28.117 12.08M242.36 145.55l-4.497 37.985M202.72 198.63l-30.65-22.888M202.72 198.63l-2.25 18.99" stroke-width="1.2" stroke="#000" stroke-miterlimit="10" fill="none"/><path d="M200.47 217.62l-2.25 18.993" stroke-width="1.2" stroke="#0c0" stroke-miterlimit="10" fill="none"/><path d="M172.07 175.742l4.5-37.984M181.457 173.004l3.598-30.39M172.07 175.742l-17.57 7.55" stroke-width="1.2" stroke="#000" stroke-miterlimit="10" fill="none"/><path d="M154.5 183.293l-17.574 7.547" stroke-width="1.2" stroke="#00f" stroke-miterlimit="10" fill="none"/><path d="M176.57 137.758l35.145-15.098M176.57 137.758l-15.324-11.446" stroke-width="1.2" stroke="#000" stroke-miterlimit="10" fill="none"/><path d="M161.246 126.313l-15.324-11.442" stroke-width="1.2" stroke="#0c0" stroke-miterlimit="10" fill="none"/><path d="M211.715 122.66l30.644 22.89M209.395 132.16l24.515 18.313" stroke-width="1.2" stroke="#000" stroke-miterlimit="10" fill="none"/><path d="M129.922 105.37h16v19h-16zm0 0" fill="#fff"/><g fill="#0c0"><use xlink:href="#a" x="129.922" y="120.223"/><use xlink:href="#b" x="141.094" y="120.223"/></g><path d="M136.926 190.84l-15.324-11.445" stroke-width="1.2" stroke="#00f" stroke-miterlimit="10" fill="none"/><path d="M121.602 179.395l-15.32-11.442" stroke-width="1.2" stroke="#000" stroke-miterlimit="10" fill="none"/><path d="M124.926 181.34h24v19h-24zm0 0" fill="#fff"/><g fill="#00f"><use xlink:href="#c" x="124.926" y="196.191"/><use xlink:href="#d" x="136.895" y="196.191"/></g><path d="M106.28 167.953l4.497-37.984M97.793 163.094l3.598-30.387M71.133 183.047l35.148-15.094M110.777 129.97l-30.644-22.892M80.133 107.078l-35.15 15.098M80.168 116.86l-28.113 12.078M44.984 122.176l-4.496 37.984M40.488 160.16l30.645 22.887M48.938 155.238l24.52 18.31M71.133 183.047l-4.496 37.984M63.945 224.637l15.32 11.445" stroke-width="1.2" stroke="#000" stroke-miterlimit="10" fill="none"/><path d="M79.266 236.082l15.324 11.445" stroke-width="1.2" stroke="#f00" stroke-miterlimit="10" fill="none"/><path d="M69.328 217.426l15.324 11.445" stroke-width="1.2" stroke="#000" stroke-miterlimit="10" fill="none"/><path d="M84.652 228.87l15.325 11.446" stroke-width="1.2" stroke="#f00" stroke-miterlimit="10" fill="none"/><path d="M66.637 221.03l-17.575 7.552" stroke-width="1.2" stroke="#000" stroke-miterlimit="10" fill="none"/><path d="M49.063 228.582l-17.57 7.547" stroke-width="1.2" stroke="#f00" stroke-miterlimit="10" fill="none"/><path d="M91.28 234.422h13v19h-13zm0 0" fill="#fff"/><use xlink:href="#e" x="91.281" y="249.273" fill="#f00"/><path d="M13.492 225.13h18v22h-18zm0 0" fill="#fff"/><use xlink:href="#f" x="13.492" y="237.505" fill="#f00"/><use xlink:href="#e" x="18.302" y="242.388" fill="#f00"/><path d="M190.22 227.113h16v19h-16zm0 0" fill="#fff"/><g fill="#0c0"><use xlink:href="#a" x="190.219" y="241.965"/><use xlink:href="#b" x="201.391" y="241.965"/></g><path d="M122.055 70.078h34v23h-34zm0 0" fill="#fff"/><g fill="#f00"><use xlink:href="#e" x="122.055" y="84.93"/><use xlink:href="#d" x="134.648" y="84.93"/></g><use xlink:href="#g" x="146.68" y="89.813" fill="#f00"/><path d="M123.055 45.078h33v22h-33zm0 0" fill="#fff"/><use xlink:href="#c" x="123.055" y="62.337"/><use xlink:href="#h" x="135.023" y="62.337"/><use xlink:href="#i" x="144.828" y="57.454"/></g></svg>
